assets/img/06.svg

<?xml version="1.0"?>
<svg xmlns="http://www.w3.org/2000/svg" xmlns:xlink="http://www.w3.org/1999/xlink" xmlns:svgjs="http://svgjs.com/svgjs" version="1.1" width="512" height="512" x="0" y="0" viewBox="0 0 60 44" style="enable-background:new 0 0 512 512" xml:space="preserve" class=""><g><g xmlns="http://www.w3.org/2000/svg" id="Page-1" fill="none" fill-rule="evenodd"><g id="022---Surgical-Mask" fill-rule="nonzero"><g id="Icons" transform="translate(9)"><path id="Shape" d="m41 11v2l-4-.01c-5.0672458-.1117737-9.8123858-2.5082349-12.91-6.52-.7581702-.93171595-1.8961695-1.47172451-3.0973825-1.46978394-1.2012131.00194057-2.3374617.5456232-3.0926175 1.47978394-3.0961116 4.0069118-7.8374836 6.3996507-12.9 6.51l-4 .01v-2c.0032948-1.10320187.89679813-1.9967052 2-2h1.51c4.01554879-.04752901 7.7957131-1.90271168 10.29-5.05 1.51724-1.86650111 3.794622-2.95014881 6.2-2.95014881s4.68276 1.0836477 6.2 2.95014881c2.4942869 3.14728832 6.2744512 5.00247099 10.29 5.05h1.51c1.1032019.0032948 1.9967052.89679813 2 2z" fill="#3f51b4" data-original="#3f51b4" style=""/><path id="Shape" d="m39 9h-1.51c-4.0155488-.04752901-7.7957131-1.90271168-10.29-5.05-1.8430521-2.2971043-4.8119296-3.37669612-7.7-2.8 1.8482096.34889867 3.5132309 1.34082622 4.7 2.8 2.4942869 3.14728832 6.2744512 5.00247099 10.29 5.05h1.51c1.1032019.0032948 1.9967052.89679813 2 2v1.992l3 .008v-2c-.0032948-1.10320187-.8967981-1.9967052-2-2z" fill="#283592" data-original="#283592" style=""/><path id="Shape" d="m41 13v9c.0826421 10.6552976-7.8673329 19.6652693-18.45 20.91-1.0298493.120002-2.0701507.120002-3.1 0-10.5826671-1.2447307-18.53264211-10.2547024-18.45-20.91v-9l4-.01c5.0625164-.1103493 9.8038884-2.5030882 12.9-6.51.7551558-.93416074 1.8914044-1.47784337 3.0926175-1.47978394 1.201213-.00194057 2.3392123.53806799 3.0973825 1.46978394 3.0976142 4.0117651 7.8427542 6.4082263 12.91 6.52z" fill="#003180" data-original="#02a8f3" style="" class=""/><path id="Shape" d="m37 12.99c-5.0672458-.1117737-9.8123858-2.5082349-12.91-6.52-1.0972593-1.37149019-2.9731708-1.84516808-4.59-1.159.6199361.24483596 1.1671833.64374136 1.59 1.159 3.0976142 4.0117651 7.8427542 6.4082263 12.91 6.52l4 .01v9c.0826421 10.6552976-7.8673329 19.6652693-18.45 20.91h-.05c1.0132819.1173225 2.0367181.1173225 3.05 0 10.5826671-1.2447307 18.5326421-10.2547024 18.45-20.91v-9z" fill="#002258" data-original="#0377bb" style="" class=""/></g><g id="Icons_copy" fill="#000"><path id="Shape" d="m16.7 24.955c4.3051096 1.3459402 8.789399 2.0313959 13.3 2.033 4.510601-.0016041 8.9948904-.6870598 13.3-2.033.3411886-.1061079.5998521-.3861776.6785543-.7347095.0787022-.348532-.0345136-.712576-.297-.955-.2624865-.2424241-.6343657-.3263984-.9755543-.2202905-8.2706401 2.589997-17.1353599 2.589997-25.406 0-.5274319-.1640286-1.0879714.1305681-1.252.658s.1305681 1.0879714.658 1.252z" fill="#000000" data-original="#000000" style="" class=""/><path id="Shape" d="m16.846 18.988c4.3522763.6730667 8.7499886 1.0093977 13.154 1.006 4.4040114.0033977 8.8017237-.3329333 13.154-1.006.3564205-.0512434.6577686-.2901529.7889596-.6254891.1311911-.3353361.0719643-.7153107-.1550617-.9948114-.2270259-.2795007-.5867898-.4153624-.9418979-.3556995-8.513904 1.3099961-17.178096 1.3099961-25.692 0-.5420955-.0779383-1.0460312.2946761-1.1303782.8358115s.2822787 1.0494446.8223782 1.1401885z" fill="#000000" data-original="#000000" style="" class=""/><path id="Shape" d="m42.569 30.1c-7.9313222 3.8750661-17.2066778 3.8750661-25.138 0-.3250623-.1825826-.7247039-.1691711-1.0367941.0347938-.3120901.2039649-.484799.56461-.4480604.9356251s.2768235.6907846.6228545.8295811c8.4754161 4.1401645 18.3865839 4.1401645 26.862 0 .346031-.1387965.5861159-.458566.6228545-.8295811s-.1359703-.7316602-.4480604-.9356251c-.3120902-.2039649-.7117318-.2173764-1.0367941-.0347938z" fill="#000000" data-original="#000000" style="" class=""/><path id="Shape" d="m56 10h-5.184c-.4222546-1.19435087-1.5492146-1.99474861-2.816-2h-1.51c-3.7138066-.04849718-7.2081338-1.7675607-9.513-4.68-1.7075424-2.09945917-4.2698164-3.31824569-6.976-3.31824569s-5.2684576 1.21878652-6.976 3.31824569c-2.3053985 2.91286473-5.8005235 4.63195933-9.515 4.68h-1.51c-1.2667854.00525139-2.39374545.80564913-2.816 2h-5.184c-2.209139 0-4 1.790861-4 4v5c0 5.256 4.706 10.093 10.418 10.881 2.8200623 7.7080375 9.7726112 13.1458589 17.933 14.026 1.0965013.1240731 2.2034987.1240731 3.3 0 8.1596383-.8808621 15.111253-6.3185593 17.931-14.026 5.712-.788 10.418-5.625 10.418-10.881v-5c0-2.209139-1.790861-4-4-4zm-44 0h1.51c4.3169159-.04813187 8.3822784-2.03911993 11.067-5.42 1.3273382-1.63324052 3.3199095-2.58149688 5.4245-2.58149688s4.0971618.94825636 5.4245 2.58149688c2.6836928 3.38052747 6.7480036 5.37154019 11.064 5.42h1.51c.5522847 0 1 .4477153 1 1v1l-3-.005h-.02c-4.7564199-.1279174-9.2031664-2.3880103-12.11-6.155-.9486835-1.16595521-2.3724968-1.84202835-3.8756432-1.84028208-1.5031463.00174627-2.9253849.68112577-3.8713568 1.84928208-2.9056206 3.76164639-7.3485118 6.017607-12.1 6.144h-.023l-3 .007v-1c0-.5522847.4477153-1 1-1zm-10 9v-5c0-1.1045695.8954305-2 2-2h5v10c.003163 1.9316377.25353022 3.8549284.745 5.723-3.973-.957-7.745-4.351-7.745-8.723zm29.442 22.918c-.9583.1080007-1.9257.1080007-2.884 0-7.5982075-.8293808-14.0180296-6.0068708-16.438-13.257v-.01c-.7379784-2.1399589-1.1164327-4.3873694-1.12-6.651v-8l3-.005c5.3653521-.1045779 10.3941637-2.6353481 13.675-6.882.5665226-.70117915 1.4191517-1.1093426 2.3205936-1.11089513.901442-.00155254 1.7554719.40367156 2.3244064 1.10289513 3.2853404 4.2326296 8.3004685 6.7627777 13.657 6.89h.023l3 .005v8c-.0028228 2.2627913-.3802596 4.5095033-1.117 6.649v.01c-2.419781 7.2518198-8.8411547 12.4303974-16.441 13.259zm26.558-22.918c0 4.372-3.772 7.766-7.745 8.725.491639-1.8687191.7420076-3.7926928.745-5.725v-10h5c1.1045695 0 2 .8954305 2 2z" fill="#000000" data-original="#000000" style="" class=""/></g></g></g></g></svg>

<svg xmlns="http://www.w3.org/2000/svg" width="512" height="512" viewBox="0 0 60 44"><g xmlns="http://www.w3.org/2000/svg" id="Page-1" fill="none" fill-rule="evenodd"><g id="022---Surgical-Mask" fill-rule="nonzero"><g id="Icons" transform="translate(9)"><path id="Shape" d="M41 11v2l-4-.01a16.778 16.778 0 01-12.91-6.52 3.985 3.985 0 00-6.19.01A16.764 16.764 0 015 12.99L1 13v-2a2.006 2.006 0 012-2h1.51A13.331 13.331 0 0014.8 3.95a7.99 7.99 0 0112.4 0A13.331 13.331 0 0037.49 9H39a2.006 2.006 0 012 2z" fill="#3f51b4" data-original="#3f51b4"/><path id="Shape" d="M39 9h-1.51A13.331 13.331 0 0127.2 3.95a7.891 7.891 0 00-7.7-2.8 7.962 7.962 0 014.7 2.8A13.331 13.331 0 0034.49 9H36a2.006 2.006 0 012 2v1.992L41 13v-2a2.006 2.006 0 00-2-2z" fill="#283592" data-original="#283592"/><path id="Shape" d="M41 13v9c.083 10.655-7.867 19.665-18.45 20.91-1.03.12-2.07.12-3.1 0C8.867 41.665.917 32.655 1 22v-9l4-.01a16.764 16.764 0 0012.9-6.51 3.985 3.985 0 016.19-.01A16.778 16.778 0 0037 12.99z" fill="#003180" data-original="#02a8f3"/><path id="Shape" d="M37 12.99a16.778 16.778 0 01-12.91-6.52 3.918 3.918 0 00-4.59-1.159c.62.245 1.167.644 1.59 1.159A16.778 16.778 0 0034 12.99l4 .01v9c.083 10.655-7.867 19.665-18.45 20.91h-.05c1.013.117 2.037.117 3.05 0C33.133 41.665 41.083 32.655 41 22v-9z" fill="#002258" data-original="#0377bb"/></g><g id="Icons_copy" fill="#000"><path id="Shape" d="M16.7 24.955A44.625 44.625 0 0030 26.988a44.625 44.625 0 0013.3-2.033 1 1 0 00-.594-1.91 42.507 42.507 0 01-25.406 0 1 1 0 00-.594 1.91zm.146-5.967c4.352.673 8.75 1.01 13.154 1.006a85.637 85.637 0 0013.154-1.006 1 1 0 10-.308-1.976 84.471 84.471 0 01-25.692 0 1 1 0 00-.308 1.976zM42.569 30.1a28.632 28.632 0 01-25.138 0 1 1 0 10-.862 1.8 30.6 30.6 0 0026.862 0 1 1 0 10-.862-1.8z" data-original="#000000"/><path id="Shape" d="M56 10h-5.184A3 3 0 0048 8h-1.51a12.337 12.337 0 01-9.513-4.68 8.992 8.992 0 00-13.952 0A12.338 12.338 0 0113.51 8H12a3 3 0 00-2.816 2H4a4 4 0 00-4 4v5c0 5.256 4.706 10.093 10.418 10.881a21.557 21.557 0 0017.933 14.026c1.097.124 2.203.124 3.3 0a21.557 21.557 0 0017.931-14.026C55.294 29.093 60 24.256 60 19v-5a4 4 0 00-4-4zm-44 0h1.51a14.336 14.336 0 0011.067-5.42 6.99 6.99 0 0110.849 0A14.332 14.332 0 0046.49 10H48a1 1 0 011 1v1l-3-.005h-.02A15.834 15.834 0 0133.87 5.84a4.989 4.989 0 00-7.747.009 15.821 15.821 0 01-12.1 6.144H14L11 12v-1a1 1 0 011-1zM2 19v-5a2 2 0 012-2h5v10a22.65 22.65 0 00.745 5.723C5.772 26.766 2 23.372 2 19zm29.442 22.918c-.958.108-1.926.108-2.884 0A19.568 19.568 0 0112.12 28.661v-.01A20.5 20.5 0 0111 22v-8l3-.005a17.717 17.717 0 0013.675-6.882 2.99 2.99 0 014.645-.008 17.824 17.824 0 0013.657 6.89H46L49 14v8a20.5 20.5 0 01-1.117 6.649v.01a19.568 19.568 0 01-16.441 13.259zM58 19c0 4.372-3.772 7.766-7.745 8.725.492-1.869.742-3.793.745-5.725V12h5a2 2 0 012 2z" data-original="#000000"/></g></g></g></svg>
